!!!!SEGMENT: pl-kk--kk-i-513--012_haser-august-ferdinand--miserere-ne-proicias-me-a-facie-tua.krn
!!!cenid: 17xx:1852
!!!COM: Häser, August Ferdinand
!!!COM-rism: pe37240
!!!CDT: 1779/10/15-1844/11/01
!!!CNT: German
!!!OTL: Miserere - Ne proicias me a facie tua
!!!PDT:
!!!AGN: Sacred
!!!SMS-siglum: PL-Kk
!!!SMS-shelfmark: Kk.I.513
!!!SMS-variant:
!!!SMS-altvar:
!!!NIFC-rismID: 1001138501
!!!system-decoration: [(s1,s2,s3,s4)][(s5,s6)]
**kern	**kern	**kern	**text	**dynam	**kern	**text	**dynam	**kern	**text	**dynam	**kern	**text
*part6	*part5	*part4	*part4	*part4	*part3	*part3	*part3	*part2	*part2	*part2	*part1	*part1
*staff6	*staff5	*staff4	*staff4	*	*staff3	*staff3	*	*staff2	*staff2	*	*staff1	*staff1
*	*I"[Organo]	*I"Basso.	*	*	*I"Tenore.	*	*	*I"Alto	*	*	*I"Soprano.	*
*	*I'[org]	*I'B	*	*	*I'T	*	*	*I'A	*	*	*I'S	*
*clefF4	*clefG2	*clefF4	*	*	*clefC4	*	*	*clefG2	*	*	*clefG2	*
*k[b-e-]	*k[b-e-]	*k[b-e-]	*	*	*k[b-e-]	*	*	*k[b-e-]	*	*	*k[b-e-]	*
*M3/4	*M3/4	*M3/4	*	*	*M3/4	*	*	*M3/4	*	*	*M3/4	*
*2\right	*2\right	*2\right	*	*	*2\right	*	*	*	*	*	*2\right	*
!LO:TX:t=P:problem:all\right:global	!LO:TX:t=P:problem:all\right:global	!LO:TX:t=P:problem:all\right:global	!	!	!LO:TX:t=P:problem:all\right:global	!	!	!LO:TX:t=P:problem:all\right:global	!	!	!LO:TX:t=P:problem:all\right:global	!
!	!LO:TX:t=P:w źródle brak oznaczenia tempa:problem	!	!	!	!	!	!	!	!	!	!	!
!	!	!	!	!	!LO:TX:t=P:problem:w źródle kolejność znaków przykluczowych to B- E-	!	!	!	!	!	!	!
!	!	!	!	!	!	!	!	!LO:TX:a:Bi:t=No 12.:problem:'No 12.' znajduje się przed kluczem i oznaczeniem metrum na pięciolinii	!	!	!LO:TX:a:Bi:t=N 12.:problem:'N 12.' znajduje się przed kluczem i oznaczeniem metrum na pięciolinii	!
!	!LO:TX:a:Bi:t=No 12.:problem:'No 12.' znajduje się przed kluczem i oznaczeniem metrum na pięciolinii	!LO:TX:a:Bi:t=N. 12.:problem:'N. 12.' znajduje się przed kluczem i oznaczeniem metrum na pięciolinii	!	!	!LO:TX:a:Bi:t=N 12.:problem:'N 12.' znajduje się przed kluczem i oznaczeniem metrum na pięciolinii	!	!	!	!	!	!	!
!	!	!	!	!	!LO:TX:a:Bi:t=Soli.	!	!	!	!	!	!	!
!	!	!LO:TX:a:Bi:t=Maestoso.:rj	!	!	!LO:TX:a:Bi:t=Maestoso:rj	!	!	!LO:TX:a:Bi:t=Maestoso.:rj	!	!	!LO:TX:a:Bi:t=Maestoso.:rj	!
!	!	!	!	!LO:DY:a:rj	!	!	!LO:DY:b:rj	!	!	!LO:DY:b:rj	!	!
8.d\L	8.dd\L	8.d\	Ne	f	8.d\	Ne	p	8.dd\	Ne	f	8.dd\	Ne
16c\Jk	16cc\Jk	16c\	pro-	.	16c\	pro-	.	16cc\	pro-	.	16cc\	pro-
=1	=1	=1	=1	=1	=1	=1	=1	=1	=1	=1	=1	=1
*^	*^	*	*	*	*	*	*	*	*	*	*	*
!	!	!	!	!LO:SIC:l:s=-i-:v	!	!	!LO:N:vis=8	!	!	!LO:SIC:l:s=-i-:v	!	!	!	!
8.B-\L	2ryy	8.b-/L	2ryy	8.B-\	-ij-	.	8.B-/	-i-	.	8.b-/	-ji-	.	8.b-/	-i-
16A\Jk	.	16a/Jk	.	16A\	-ci-	.	16A/	-ci-	.	16a/	-ci-	.	16a/	-ci-
4G\	.	4g/	.	4G\	-as	.	4G/	-as	.	4g/	-as	.	4g/	-as
!	!	!	!	!	!	!	!LO:TX:a:Bi:t=tutti	!	!	!LO:TX:a:Bi:t=tutti	!	!	!	!
4d/	8.B-\L	8.gg/L	4g\	8.B-\	ne	.	8.d\	ne	.	8.g/	ne	.	8.gg\	ne
.	16Bn\Jk	16ff/Jk	.	16Bn\	pro-	.	16d\	pro-	.	16g/	pro-	.	16ff\	pro-
*v	*v	*	*	*	*	*	*	*	*	*	*	*	*	*
=2	=2	=2	=2	=2	=2	=2	=2	=2	=2	=2	=2	=2	=2
!	!	!	!LO:SIC:l:s=-i-:v	!	!	!	!	!	!LO:SIC:l:s=-i-:v	!	!	!	!
8.e-L 8.c\	8.ee-/L	2g\	8.c\	-ij-	.	8.e-\	-ij-	.	8.g/	-ji-	.	8.ee-\	-i-
16fJk 16d\	16dd/Jk	.	16d\	-ci-	.	16f\	-ci-	.	16g/	-ci-	.	16dd\	-ci-
4g 4e-\	4cc/	.	4e-\	-as,	.	4g\	-as	.	4g/	-as	.	4cc\	-as
!	!	!	!	!	!LO:DY:b	!	!	!LO:DY:b:rj	!	!	!	!	!
4e- 4c\	4ee-/	4ryy	8c\	ne	pp	8e-\	ne	pp	8g/	ne	.	8ee-\	ne
!	!	!	!	!	!	!	!	!	!	!	!LO:DY:b:rj	!	!
.	.	.	8c\	pro-	.	8e-\	pro-	.	8g/	pro-	p	8ee-\	pro-
=3	=3	=3	=3	=3	=3	=3	=3	=3	=3	=3	=3	=3	=3
!	!	!	!LO:SIC:l:s=-i-:v	!	!	!LO:SIC:l:s=-i-:v	!	!	!LO:SIC:l:s=-i-:v	!	!	!	!
2.C\	2.a/	2.g 2.e-\	4.C/	-ij-	.	4.e-\	-ij-	.	4.g/	-ij-	.	4.a/	-i-
.	.	.	8C/	-ci-	.	8e-\	-ci-	.	8g/	-ci-	.	8a/	-ci-
.	.	.	4C/	-as	.	4e-\	-as	.	4g/	-as	.	4a/	-as
!	!	!	!LO:LB:g=original	!	!	!	!	!	!LO:LB:g=original	!	!	!LO:LB:g=original	!
=4	=4	=4	=4	=4	=4	=4	=4	=4	=4	=4	=4	=4	=4
*^	*	*	*	*	*	*	*	*	*	*	*	*	*
!	!LO:N:vis=1	!LO:N:vis=2.	!	!	!	!	!	!	!	!	!	!	!	!
4.en/	2.C#X\	(>2b-/	4.g\	4.C#X/	me	.	4.en\	me	.	4.g/	me	.	4.b-/	me
8G/L	.	.	8en\	8C#/	a	.	8G/	a	.	8en/	a	.	8b-/	a
8A/	.	8a/L)	4e\	8C#/	fa-	.	8A/	fa-	.	8e/	fa-	.	8a/	fa-
8B-/J	.	8g/J	.	16C#/	-ci-	.	16B-\	-ci-	.	16e/	-ci-	.	16g/	-ci-
.	.	.	.	16C#/	-e	.	16B-\	-e	.	16e/	-e	.	16g/	-e
!	!	!	!	!	!	!	!LO:LB:g=original	!	!	!	!	!	!	!
=5	=5	=5	=5	=5	=5	=5	=5	=5	=5	=5	=5	=5	=5	=5
4A/	2D\	4f#X/	4d\	4D\	tu-	.	4A/	tu-	.	4d/	tu-	.	4f#X/	tu-
8F#X/L	.	8a/L	8d\L	8D\	-a	.	8F#X/	-a	.	8d/	-a,	.	8a/	-a
8A/J	.	8dd/J	8f#X\J	8D\	et	.	8A/	et	.	8f#X/	et	.	8.dd\	et
!	!	!	!	!	!	!	!	!	!	!LO:N:vis=4	!	!	!	!
4A/	8En\L	8cc#X/L	8g\L	8En\	ſpi-	.	8A/	ſpi-	.	8g/	ſpi-	.	.	.
!	!	!	!	!	!	!	!	!	!	!	!	!	!LO:N:vis=8	!
.	.	.	.	.	.	.	.	.	.	.	.	.	16cc#X\	spi-
.	8F#X\J	8bn/J	8d\J	16F#X\	-ri-	.	16A/	-ri-	.	16d/	-ri-	.	16ccn\	-ri-
.	.	.	.	16F#\	-tum	.	16A/	-tum	.	16d/	-tum	.	16cc\	-tum
!LO:LB:g=original	!	!LO:LB:g=original	!	!	!	!	!	!	!	!	!	!	!	!
*v	*v	*	*	*	*	*	*	*	*	*	*	*	*	*
=6	=6	=6	=6	=6	=6	=6	=6	=6	=6	=6	=6	=6	=6
!LO:TX:t=P:problem:mixed beam	!	!	!LO:TX:t=P:problem:mixed beam	!	!	!	!	!	!	!	!	!	!
!	!	!	!	!	!	!	!	!	!	!	!	!LO:N:vis=8	!
8G\L	8bn/L	4d\	8G\L	ſan-	.	8G/	ſan-	.	8d/	san-	.	8.bn/	ſan-
8GG/J	8b-X/J	.	8GG/J	.	.	8d\	-ctum	.	8d/	-ctum	.	.	.
.	.	.	.	.	.	.	.	.	.	.	.	16b-X/	-ctum
4C/	4a/	4e-\	4C/	-ctum	.	(>4c\	tu-	.	4e-/	tu-	.	(<4a/	tu-
4B- 4C#X/	4g/	4en\	4C#X/	tu-	.	4B-\)	.	.	4en/	.	.	4g/)	.
=7	=7	=7	=7	=7	=7	=7	=7	=7	=7	=7	=7	=7	=7
*^	*	*	*	*	*	*	*	*	*	*	*	*	*
2A/	4D\	8f#X/	8d\L	8D\	-um	.	8A/	-um	.	8d/	-um	.	8f#X/	-um
.	.	8dd/L	8f#\	8D\	ne	.	8A/	ne	.	8f#X/	ne	.	8dd\	ne
.	8En\L	8cc#X/	8g\J	8En\	au-	.	8A/	au-	.	8g/	au-	.	8cc#X\	au-
.	8F#X\J	8ccn/	4.d\	8F#X\	-fe-	.	8A/	-fe-	.	16d/	-fe-	.	8ccn\	-fe-
.	.	.	.	.	.	.	.	.	.	16d/	-ras	.	.	.
!LO:TX:t=P:problem:mixed beam	!	!	!	!	!	!	!	!	!	!	!	!	!	!
8G\L	4ryy	8bn/	.	8G\	-ras,	.	8G/	-ras	.	4d/	ne	.	8bn\	-ras
!	!	!	!	!LO:TX:b:Bi:t=V.S.	!	!	!	!	!	!	!	!	!LO:TX:b:Bi:t=V.S.	!
8GG/J	.	8b-X/J	.	8GG/	ne	.	8d\	ne	.	.	.	.	8b-X\	ne
!	!	!	!	!LO:PB:g=original	!	!	!	!	!	!LO:LB:g=original	!	!	!LO:PB:g=original	!
*v	*v	*	*	*	*	*	*	*	*	*	*	*	*	*
=8	=8	=8	=8	=8	=8	=8	=8	=8	=8	=8	=8	=8	=8
2c 2C\	2a-X 2e-/	2ryy	8.C/	au-	.	8.c\	au-	.	8.e-/	au-	.	8.a-X/	au-
.	.	.	16C/	-fe-	.	16c\	-fe-	.	16e-/	-fe-	.	16a-/	-fe-
.	.	.	4C/	-ras	.	4c\	-ras	.	4e-/	-ras	.	4a-/	-ras
4B- 4C#X\	4g/	4e-\	4C#X/	a	.	4B-\	a	.	4en/	a	.	4g/	a
*	*v	*v	*	*	*	*	*	*	*	*	*	*	*
=9	=9	=9	=9	=9	=9	=9	=9	=9	=9	=9	=9	=9
4A 4D\	4f#X 4d/	4D/	me	.	4A\	me	.	4d/	me	.	4f#X/	me,
8r	8r	4r	.	.	8r	.	.	8r	.	.	8r	.
!	!	!	!	!	!LO:TX:a:i:t=Soli	!	!	!	!	!	!	!
4.f#X\	4.dd 4.a/	.	.	.	8f#X\	ne	.	4a/	ne	.	4dd\	ne
.	.	4r	.	.	4f#\	pro-	.	.	.	.	.	.
.	.	.	.	.	.	.	.	8a/	pro-	.	8dd\	pro-
!	!	!	!	!	!LO:LB:g=original	!	!	!	!	!	!	!
=10	=10	=10	=10	=10	=10	=10	=10	=10	=10	=10	=10	=10
*	*^	*	*	*	*	*	*	*	*	*	*	*
!	!	!	!LO:TX:a:Bi:t=1	!	!	!LO:SIC:l:s=-i-:v	!	!	!LO:SIC:l:s=-i-:v	!	!	!	!
!	!	!	!	!	!	!	!	!LO:DY:a:rj	!	!	!	!	!
4fn\	8dd/L	4a-X\	2.r	.	.	8fn\	-fa-	f	8a-X/	-ij-	.	8dd\	-i-
.	16cc/L	.	.	.	.	16f\	-ci-	.	16a-/	-ci-	.	16cc\	-ci-
.	16bn/JJ	.	.	.	.	16f\	-as	.	16a-/	-as	.	16bn\	-as
8e-\L	2cc/	2g\	.	.	.	8e-\	a	.	8g/	me	.	8cc\	me
8e-X\J	.	.	.	.	.	8en\	me	.	8g/	a	.	8cc\	a
4e-\	.	.	.	.	.	8e-X\	fa-	.	8g/	fa-	.	8cc\	fa-
.	.	.	.	.	.	16e-\	-ci-	.	16g/	-ci-	.	16cc\	-ci-
.	.	.	.	.	.	16e-\	-e	.	16g/	-e	.	16cc\	-e
=11	=11	=11	=11	=11	=11	=11	=11	=11	=11	=11	=11	=11	=11
4e-X\	8cc/L	4g-X\	4r	.	.	4e-\	tu-	.	4g-X/	tu-	.	(>8cc\L	tu-
.	16b-/L	.	.	.	.	.	.	.	.	.	.	16b-\L	.
.	16a/JJ	.	.	.	.	.	.	.	.	.	.	16a\JJ)	.
!	!	!	!LO:TX:a:Bi:t=tutti	!	!	!	!	!	!	!	!	!	!
4d\	4b-/	4f\	8r	.	.	8d\	-a	.	8f/	-a	.	8b-\	-a
!	!	!	!	!	!	!	!	!	!LO:SIC:l:s=et:v	!	!	!	!
!	!	!	!	!	!LO:DY:b:rj	!	!	!	!	!	!	!	!
.	.	.	8d\	et	f	8f\	et	.	8b-/	e	.	8b-\	et
8f\L	8cc/L	8a\L	8c\	ſpi-	.	8f\	spi-	.	8a/	ſpi-	.	8cc\	spi-
8B-\J	8dd/J	8f\J	16B-\	-ri-	.	16f\	-ri-	.	16b-/	-ri-	.	16dd\	-ri-
!	!	!	!	!	!	!	!	!	!LO:TX:b:Bi:t=V.S.	!	!	!	!
.	.	.	16B-\	-tum	.	16f\	-tum	.	16b-/	-tum	.	16dd\	-tum
!LO:LB:g=original	!LO:LB:g=original	!	!	!	!	!	!	!	!LO:PB:g=original	!	!	!LO:LB:g=original	!
=12	=12	=12	=12	=12	=12	=12	=12	=12	=12	=12	=12	=12	=12
*^	*	*	*	*	*	*	*	*	*	*	*	*	*
8G\L	2ryy	8ee-L 8b- 8g/	2ryy	8G\	ſan-	.	8g\	ſan-	.	8b-\	ſan-	.	8ee-\	ſan-
8A\J	.	8ffJ 8cc 8f/	.	8A\	-ctum	.	8f\	-ctum	.	8cc\	-ctum	.	8ff\	-ctum
8B-\L	.	8ddL 8f/	.	8B-\L	tu-	.	8f\L	tu-	.	8b-/L	tu-	.	(>8dd\	tu-
8e-J 8F#X\	.	8ccJ 8a/	.	8F#X\J	.	.	8e-\J	.	.	8a/J	.	.	8cc\)	.
4d/	8G\L	8b-/L	4g\	8G\	-um	.	8d\	-um	.	8g/	-um	.	8b-\	-um
.	8Fn\J	8bn/J	.	8Fn\	ne	.	8d\	ne	.	8g/	ne	.	8bn\	ne
*v	*v	*	*	*	*	*	*	*	*	*	*	*	*	*
=13	=13	=13	=13	=13	=13	=13	=13	=13	=13	=13	=13	=13	=13
8.cL 8.E-\	8.cc/L	2g\	8.E-\	au-	.	8.c\	au-	.	8.g/	au-	.	8.cc\	au-
16BnJk 16D\	16dd/Jk	.	16D\	-fe-	.	16Bn\	-fe-	.	16g/	-fe-	.	16dd\	-fe-
4c 4C\	2ee-/	.	4C/	-ras,	.	4c\	-ras	.	4g/	-ras	.	4ee-\	-ras
!	!	!	!	!	!	!	!	!	!LO:TX:a:Bi:t=Soli	!	!	!	!
4C\	.	4a-X 4e-\	4C/	ne	.	4e-\	ne	.	4a-X/	ne	.	4ee-\	ne
!	!	!	!LO:LB:g=original	!	!	!LO:LB:g=original	!	!	!	!	!	!	!
=14	=14	=14	=14	=14	=14	=14	=14	=14	=14	=14	=14	=14	=14
*^	*	*	*	*	*	*	*	*	*	*	*	*	*
!	!	!	!	!	!	!	!	!	!LO:DY:b:rj	!	!	!	!	!
4.ryy	2D\	4.g 4.B-</	4.ryy	4.D/	au-	.	4.B-/	au-	p	4.g/	au-	.	4.g/	au-
8G/L	.	8b-/L	4.d\	8D/	-fe-	.	8G/	-fe-	.	8d/	-fe-	.	8b-/	-fe-
8F#X/	8D\L	8a/	.	8D\	-ras,	.	8F#X/	-ras	.	8d/	-ras	.	8a/	-ras
8A/J	8F#X\J	8dd/J	.	8F#X\	a	.	8A/	a	.	8d/	a	.	8dd\	a
*v	*v	*	*	*	*	*	*	*	*	*	*	*	*	*
*	*v	*v	*	*	*	*	*	*	*	*	*	*	*
=15	=15	=15	=15	=15	=15	=15	=15	=15	=15	=15	=15	=15
4G\	4b- 4d/	4G\	me	.	4G/	me	.	4d/	me	.	4b-\	me
!	!	!	!	!	!	!	!	!LO:TX:a:Bi:t=tutti	!	!	!	!
!	!	!	!	!LO:DY:b:rj	!	!	!	!	!	!	!	!
2en 2c#X\	2gg 2b-/	2c#X\	ne	ff	2en\	ne	.	2b-/	ne	.	2gg\	ne
!	!	!	!	!	!	!	!	!	!	!	!LO:LB:g=original	!
=16	=16	=16	=16	=16	=16	=16	=16	=16	=16	=16	=16	=16
*^	*^	*	*	*	*	*	*	*	*	*	*	*
!	!	!	!	!	!	!LO:DY:b:rj	!	!	!	!	!	!LO:DY:b:rj	!	!
4G\	2ryy	2b-/	2g\	4.d\	au-	pp	4.d\	au-	.	4.g/	au-	p	4.b-/	au-
4e-X 4cn\	.	.	.	.	.	.	.	.	.	.	.	.	.	.
.	.	.	.	8D/	-fe-	.	8d\	-fe-	.	8g/	-fe-	.	8b-/	-fe-
8dL 8c/	8c\L	8a/L	4f#X\	8D/	-ras	.	8d\	-ras	.	8f#X/	-ras	.	8a/	-ras
8c/J	8D\J	8dd/J	.	8D/	a	.	8c\	a	.	8f#/	a	.	8dd\	a
*v	*v	*	*	*	*	*	*	*	*	*	*	*	*	*
*	*v	*v	*	*	*	*	*	*	*	*	*	*	*
=17	=17	=17	=17	=17	=17	=17	=17	=17	=17	=17	=17	=17
!	!	!	!	!	!	!	!	!	!	!	!LO:TX:t=P:problem:w źródle skreślony dźwięk b-	!
!	!	!	!	!	!	!	!	!	!	!	!LO:TX:b:i:t=g	!
2B- 2G\	2g 2d/	2G\	me.	.	2B-\	me	.	2g/	me.	.	2g\	me.
4r	4r	4r	.	.	4r	.	.	4r	.	.	4r	.
==	==	==	==	==	==	==	==	==	==	==	==	==
*-	*-	*-	*-	*-	*-	*-	*-	*-	*-	*-	*-	*-
!!title: @{OTL};
!!!RDF**kern: > = above
!!!RDF**kern: < = below
!!!EED: Wojciech Jakubiak-Danek
!!!EST: 2021-01-03
!!!URL-scan: http://repozytorium.nifc.pl/skany/pl-kk-nut--i-513
!!!ONB-nifc:
!!!ENC: Andrzej Kubiczek
!!!END: 2021-01-01
